public/img/field-1.svg

<svg width="75" height="77" viewBox="0 0 75 77" fill="none" xmlns="http://www.w3.org/2000/svg">
<path d="M71.6269 9.23193C71.6269 7.07031 69.8681 5.31152 67.7065 5.31152C67.1753 5.31152 66.6689 5.41846 66.2065 5.61084C65.8242 3.84717 64.2524 2.52197 62.376 2.52197C61.8213 2.52197 61.2934 2.63818 60.8144 2.84717C60.3467 1.20557 58.8345 0 57.0449 0C55.2558 0 53.7436 1.20557 53.2754 2.84717C52.7969 2.63818 52.269 2.52197 51.7143 2.52197C49.5527 2.52197 47.7944 4.28027 47.7944 6.44189V16.2632C46.9014 15.3169 45.5654 14.8271 44.2051 15.0669C43.1435 15.2544 42.2231 15.8472 41.6138 16.7363C41.5483 16.8315 41.4883 16.9297 41.4321 17.0293C40.9023 16.7437 40.2969 16.5815 39.6543 16.5815C39.1753 16.5815 38.7178 16.6729 38.2959 16.8364C37.8975 15.1865 36.4097 13.9565 34.6392 13.9565C34.1367 13.9565 33.6572 14.0566 33.2187 14.2363C32.7441 12.7021 31.312 11.5845 29.624 11.5845C27.936 11.5845 26.5039 12.7021 26.0293 14.2363C25.5908 14.0566 25.1113 13.9565 24.6089 13.9565C22.5342 13.9565 20.8467 15.6445 20.8467 17.7188V26.7788C19.9936 25.9565 18.7734 25.542 17.5308 25.7607C16.5127 25.9404 15.6294 26.5093 15.0449 27.3623C14.4604 28.2153 14.2485 29.2441 14.4482 30.2588L15.7637 36.9292C16.2871 39.584 17.5767 41.9971 19.4927 43.9072L21.8413 46.249V50.248H20.5176C19.8271 50.248 19.2676 50.8076 19.2676 51.498V62.75C19.2676 63.4404 19.8271 64 20.5176 64C21.2075 64 21.7676 63.4404 21.7676 62.75V52.748H38.084V62.75C38.084 63.4404 38.6435 64 39.334 64C40.0244 64 40.584 63.4404 40.584 62.75V51.498C40.584 50.8076 40.0244 50.248 39.334 50.248H38.0434V46.249L39.4316 44.8652C42.0015 42.3027 43.4165 38.8926 43.4165 35.2637V30.0298C44.1245 31.5806 45.1059 32.999 46.332 34.2217L48.8516 36.7339V41.625H47.3662C46.6758 41.625 46.1162 42.1846 46.1162 42.875V62.75C46.1162 63.4404 46.6758 64 47.3662 64C48.0561 64 48.6162 63.4404 48.6162 62.75V49.125H54.6655C55.3559 49.125 55.9155 48.5654 55.9155 47.875C55.9155 47.1846 55.3559 46.625 54.6655 46.625H48.6162V44.125H66.1162V62.75C66.1162 63.4404 66.6758 64 67.3662 64C68.0561 64 68.6162 63.4404 68.6162 62.75V42.875C68.6162 42.1846 68.0561 41.625 67.3662 41.625H65.9155V36.7339L67.4141 35.2402C70.1304 32.5312 71.6264 28.9263 71.6264 25.0903V23.792C71.6264 23.1016 71.0669 22.542 70.3764 22.542C69.6865 22.542 69.1264 23.1016 69.1264 23.792V25.0903C69.1264 28.2573 67.8916 31.2334 65.6489 33.4697L63.7832 35.3301C63.5478 35.5645 63.4155 35.8833 63.4155 36.2153V41.625H51.3516V36.2153C51.3516 35.8828 51.2192 35.5645 50.9839 35.3301L48.0972 32.4517C46.4253 30.7842 45.2998 28.6782 44.8433 26.3618L43.4448 19.2715C43.3672 18.8784 43.4492 18.48 43.6758 18.1494C43.9023 17.8193 44.2446 17.5986 44.6391 17.5293C45.4043 17.394 46.1474 17.8794 46.332 18.6333L47.0547 21.5801C47.2554 22.3999 48.0093 22.9214 48.8476 22.8203C49.686 22.7192 50.2944 22.0327 50.2944 21.1885V6.44189C50.2944 5.65869 50.9311 5.02197 51.7143 5.02197C52.4438 5.02197 53.0459 5.57471 53.125 6.28369V14.501C53.125 14.5508 53.1284 14.5996 53.1343 14.6479V15.4507C53.1343 16.1411 53.6938 16.7007 54.3843 16.7007C55.0747 16.7007 55.6343 16.1411 55.6343 15.4507V6.44189C55.6343 6.35547 55.6304 6.26953 55.625 6.18408V3.91992C55.625 3.13721 56.2622 2.5 57.0449 2.5C57.8281 2.5 58.4648 3.13721 58.4648 3.91992V6.18408C58.4595 6.26953 58.4556 6.35547 58.4556 6.44189V14.501C58.4556 14.5508 58.4595 14.5996 58.4648 14.6479V15.4507C58.4648 16.1411 59.0249 16.7007 59.7148 16.7007C60.4053 16.7007 60.9648 16.1411 60.9648 15.4507V6.28369C61.0439 5.57471 61.646 5.02197 62.3755 5.02197C63.1587 5.02197 63.7954 5.65869 63.7954 6.44189V8.97412C63.79 9.05957 63.7861 9.14502 63.7861 9.23193V14.501C63.7861 14.5508 63.79 14.5996 63.7954 14.6479V15.4507C63.7954 16.1411 64.3555 16.7007 65.0454 16.7007C65.7358 16.7007 66.2954 16.1411 66.2954 15.4507V9.07324C66.3745 8.36475 66.977 7.81152 67.706 7.81152C68.4892 7.81152 69.1264 8.44873 69.1264 9.23193V13.7915C69.1264 14.4819 69.686 15.0415 70.3764 15.0415C71.0664 15.0415 71.6264 14.4819 71.6264 13.7915V9.23193H71.6269ZM40.9165 35.2637C40.9165 38.2236 39.7622 41.0049 37.6665 43.0947L35.9111 44.8452C35.6758 45.0796 35.5434 45.3979 35.5434 45.7305V50.248H24.3413V45.7305C24.3413 45.3979 24.209 45.0796 23.9736 44.8452L21.2583 42.1372C19.6953 40.5786 18.6435 38.6108 18.2168 36.4453L16.9014 29.7749C16.8325 29.4248 16.9053 29.0698 17.1074 28.7754C17.3091 28.481 17.6138 28.2847 17.9648 28.2227C18.647 28.103 19.3086 28.5352 19.4731 29.2065L20.1528 31.979C20.3511 32.7871 21.0937 33.3008 21.9209 33.2012C22.7471 33.1016 23.3467 32.4253 23.3467 31.5928V17.7188C23.3467 17.0229 23.9131 16.4565 24.6089 16.4565C25.2559 16.4565 25.7905 16.9468 25.8618 17.5752V25.3008C25.8618 25.3496 25.8652 25.397 25.8706 25.4438V26.1948C25.8706 26.8853 26.4307 27.4448 27.1206 27.4448C27.811 27.4448 28.3706 26.8853 28.3706 26.1948V17.7188C28.3706 17.6367 28.3672 17.5557 28.3618 17.4746V15.3462C28.3618 14.6504 28.9282 14.0845 29.624 14.0845C30.3203 14.0845 30.8862 14.6504 30.8862 15.3462V17.4731C30.8808 17.5547 30.8774 17.6362 30.8774 17.7188V25.3008C30.8774 25.3496 30.8808 25.3975 30.8862 25.4448V26.1948C30.8862 26.8848 31.4458 27.4448 32.1362 27.4448C32.8267 27.4448 33.3862 26.8848 33.3862 26.1948V17.5742C33.458 16.9463 33.9922 16.4565 34.6392 16.4565C35.3354 16.4565 35.9014 17.0229 35.9014 17.7188V20.0981C35.896 20.1792 35.8926 20.2612 35.8926 20.3438V25.3008C35.8926 25.3496 35.896 25.3975 35.9014 25.4448V26.1948C35.9014 26.8848 36.4614 27.4448 37.1514 27.4448C37.8418 27.4448 38.4014 26.8848 38.4014 26.1948V20.1992C38.4736 19.5713 39.0078 19.0815 39.6548 19.0815C40.3506 19.0815 40.9165 19.6479 40.9165 20.3438V35.2637Z" fill="#472880"/>
<path d="M70.375 17.541C70.0459 17.541 69.7236 17.6748 69.4912 17.9077C69.2583 18.1401 69.125 18.4624 69.125 18.791C69.125 19.1211 69.2583 19.4424 69.4912 19.6763C69.7246 19.9087 70.0459 20.041 70.375 20.041C70.7036 20.041 71.0259 19.9087 71.2583 19.6763C71.4922 19.4424 71.625 19.1211 71.625 18.791C71.625 18.4624 71.4922 18.1401 71.2583 17.9077C71.0259 17.6748 70.7046 17.541 70.375 17.541Z" fill="#472880"/>
<path d="M59.6631 46.625C59.3345 46.625 59.0132 46.7588 58.7793 46.9912C58.5469 47.2236 58.4141 47.5464 58.4141 47.875C58.4141 48.2036 58.5469 48.5264 58.7793 48.7588C59.0132 48.9912 59.3345 49.125 59.6631 49.125C59.9932 49.125 60.3145 48.9912 60.5479 48.7588C60.7808 48.5264 60.9141 48.2036 60.9141 47.875C60.9141 47.5464 60.7808 47.2236 60.5479 46.9912C60.3145 46.7588 59.9932 46.625 59.6631 46.625Z" fill="#472880"/>
<path d="M64 68.1551L63.9645 68.125L64 68.0849L63.0984 67.3221L56.7921 61.5215C56.7921 61.5215 56.6807 61.6369 56.4983 61.8075L56.3311 61.9882C54.8926 63.3179 50.2832 67.1666 44.8735 67.2419C44.757 67.2419 44.6404 67.2419 44.5239 67.2419C41.6772 66.9358 38.9015 65.4204 36.0852 62.6154C31.4099 57.9388 26.2078 55.4148 20.6107 55.0786C20.4537 55.0786 20.2966 55.0786 20.1447 55.0786C19.3027 55.0046 18.4568 54.9828 17.612 55.0133C9.18338 55.3546 2.92268 60.9545 0.795251 63.1122C0.339375 63.5186 0.0658488 63.8096 0.00506529 63.8598L0.0354571 63.8899C0.0262093 63.9068 0.0142314 63.9221 0 63.9351L0.901623 64.6878L7.20792 70.4934L7.5017 70.2024L7.66886 70.0217C9.10233 68.687 13.7168 64.8383 19.1266 64.7681C19.2431 64.7681 19.3545 64.7681 19.471 64.7681C22.3228 65.0741 25.0935 66.5895 27.9098 69.3945C32.5901 74.0511 37.782 76.5751 43.3792 76.9213C43.5311 76.9213 43.6882 76.9213 43.8452 76.9213C44.6872 76.9955 45.5331 77.0172 46.3778 76.9865C54.8065 76.6453 61.0672 71.0504 63.1946 68.8927C63.6353 68.4712 63.9139 68.1852 63.9696 68.125" fill="#EFC825"/>
</svg>

<svg width="75" height="77" fill="none" xmlns="http://www.w3.org/2000/svg"><path d="M71.627 9.232a3.925 3.925 0 00-3.92-3.92 3.88 3.88 0 00-1.5.299 3.926 3.926 0 00-3.831-3.089c-.555 0-1.083.116-1.562.325A3.926 3.926 0 0057.044 0a3.927 3.927 0 00-3.769 2.847 3.89 3.89 0 00-1.56-.325 3.924 3.924 0 00-3.92 3.92v9.821a3.986 3.986 0 00-3.59-1.196 3.95 3.95 0 00-2.773 1.962 3.736 3.736 0 00-3.136-.193 3.769 3.769 0 00-3.657-2.88c-.502 0-.982.1-1.42.28a3.769 3.769 0 00-3.595-2.652 3.769 3.769 0 00-3.595 2.652 3.738 3.738 0 00-1.42-.28 3.767 3.767 0 00-3.762 3.763v9.06a3.822 3.822 0 00-3.316-1.018 3.79 3.79 0 00-2.486 1.601 3.791 3.791 0 00-.597 2.897l1.316 6.67a13.509 13.509 0 003.729 6.978l2.348 2.342v3.999h-1.323c-.69 0-1.25.56-1.25 1.25V62.75a1.25 1.25 0 102.5 0V52.748h16.316V62.75a1.25 1.25 0 102.5 0V51.498c0-.69-.56-1.25-1.25-1.25h-1.29v-3.999l1.388-1.384a13.468 13.468 0 003.984-9.601V30.03a14.3 14.3 0 002.916 4.192l2.52 2.512v4.891h-1.486c-.69 0-1.25.56-1.25 1.25V62.75a1.25 1.25 0 102.5 0V49.125h6.05a1.25 1.25 0 100-2.5h-6.05v-2.5h17.5V62.75a1.25 1.25 0 102.5 0V42.875c0-.69-.56-1.25-1.25-1.25h-1.45v-4.891l1.498-1.494a14.24 14.24 0 004.212-10.15v-1.298a1.25 1.25 0 10-2.5 0v1.298c0 3.167-1.234 6.143-3.477 8.38l-1.866 1.86a1.25 1.25 0 00-.367.885v5.41H51.352v-5.41c0-.332-.133-.65-.368-.885l-2.887-2.878a11.793 11.793 0 01-3.254-6.09l-1.398-7.09a1.467 1.467 0 01.23-1.123 1.481 1.481 0 012.656.484l.724 2.947c.2.82.954 1.341 1.793 1.24a1.625 1.625 0 001.446-1.631V6.442c0-.783.637-1.42 1.42-1.42.73 0 1.332.553 1.411 1.262V14.5c0 .05.003.099.01.147v.803a1.25 1.25 0 102.5 0V6.44c0-.086-.005-.171-.01-.257V3.92c0-.783.637-1.42 1.42-1.42.783 0 1.42.637 1.42 1.42v2.264c-.006.086-.01.171-.01.258V14.5c0 .05.005.099.01.147v.803a1.25 1.25 0 002.5 0V6.284a1.421 1.421 0 011.41-1.262c.784 0 1.42.637 1.42 1.42v2.532a4.416 4.416 0 00-.009.258V14.5c0 .05.004.099.01.147v.803a1.25 1.25 0 002.5 0V9.073a1.422 1.422 0 011.41-1.261c.783 0 1.42.637 1.42 1.42v4.56a1.25 1.25 0 102.5 0v-4.56zm-30.71 26.032c0 2.96-1.155 5.74-3.25 7.83l-1.756 1.751a1.25 1.25 0 00-.368.886v4.517H24.341v-4.517c0-.333-.132-.651-.367-.886l-2.716-2.708a11.018 11.018 0 01-3.041-5.692l-1.316-6.67c-.069-.35.004-.705.206-1a1.31 1.31 0 01.858-.552 1.32 1.32 0 011.508.983l.68 2.773a1.6 1.6 0 001.768 1.222 1.601 1.601 0 001.426-1.608V17.719c0-.696.566-1.263 1.262-1.263.647 0 1.181.49 1.253 1.12V25.3c0 .049.003.096.009.143v.75a1.25 1.25 0 002.5 0V17.72c0-.082-.004-.163-.01-.244v-2.129a1.263 1.263 0 012.525 0v2.127a3.71 3.71 0 00-.009.246v7.58c0 .049.004.097.01.144v.75a1.25 1.25 0 002.5 0v-8.62a1.263 1.263 0 011.252-1.119c.696 0 1.262.567 1.262 1.263v2.38a3.698 3.698 0 00-.008.245V25.3c0 .049.003.097.008.144v.75a1.25 1.25 0 002.5 0v-5.996a1.264 1.264 0 011.254-1.118c.696 0 1.261.567 1.261 1.263v14.92z" fill="#472880"/><path d="M70.375 17.541c-.33 0-.651.134-.884.367a1.257 1.257 0 00-.366.883c0 .33.133.651.366.885a1.255 1.255 0 001.767 0 1.253 1.253 0 00-.883-2.135zM59.663 46.625c-.328 0-.65.134-.884.366a1.26 1.26 0 00-.365.884c0 .329.133.651.365.884.234.232.555.366.884.366.33 0 .652-.134.885-.366.233-.233.366-.555.366-.884 0-.329-.133-.651-.366-.884a1.261 1.261 0 00-.885-.366z" fill="#472880"/><path d="M64 68.155l-.035-.03.035-.04-.902-.763-6.306-5.8s-.111.115-.294.285l-.167.181c-1.438 1.33-6.048 5.179-11.458 5.254h-.35c-2.846-.306-5.622-1.822-8.438-4.627-4.675-4.676-9.877-7.2-15.474-7.536h-.466a20.487 20.487 0 00-2.533-.066c-8.429.342-14.69 5.942-16.817 8.1-.456.406-.73.697-.79.747l.03.03a.175.175 0 01-.035.045l.902.753 6.306 5.805.294-.29.167-.181c1.433-1.335 6.048-5.184 11.458-5.254h.344c2.852.306 5.622 1.822 8.439 4.626 4.68 4.657 9.872 7.181 15.47 7.527h.465c.842.075 1.688.096 2.533.066 8.428-.342 14.69-5.937 16.817-8.094.44-.422.719-.708.775-.768" fill="#EFC825"/></svg>
